flaticon/hand-gestures/tap-63.svg

<svg xmlns="http://www.w3.org/2000/svg" width="32" height="32" viewBox="0 0 24 24">
    <path d="M 22 8.195312 L 13.519531 8.195312 C 14.28125 7.835938 15 7.355469 15.480469 6.875 C 16.121094 6.234375 16.160156 4.953125 15.558594 4.234375 C 15.359375 4.035156 14.640625 3.355469 13.359375 4.273438 C 12.160156 5.113281 9.519531 5.796875 8 5.796875 C 4.800781 5.796875 3.359375 7.875 2.960938 8.59375 L 0.398438 8.59375 C 0.160156 8.59375 0 8.753906 0 8.996094 C 0 9.234375 0.160156 9.394531 0.398438 9.394531 L 3.199219 9.394531 C 3.359375 9.394531 3.519531 9.316406 3.558594 9.15625 C 3.601562 9.035156 4.761719 6.59375 8 6.59375 C 9.480469 6.59375 12.398438 5.953125 13.839844 4.914062 C 14.199219 4.636719 14.679688 4.394531 14.960938 4.753906 C 15.28125 5.15625 15.28125 5.953125 14.921875 6.316406 C 13.921875 7.316406 11.800781 8.195312 10.800781 8.195312 C 10.558594 8.195312 10.398438 8.355469 10.398438 8.59375 C 10.398438 8.835938 10.558594 8.996094 10.800781 8.996094 L 22 8.996094 C 22.558594 8.996094 23.199219 9.433594 23.199219 9.996094 C 23.199219 10.554688 22.558594 10.996094 22 10.996094 L 13.199219 10.996094 C 12.960938 10.996094 12.800781 11.15625 12.800781 11.394531 C 12.800781 11.636719 12.960938 11.792969 13.199219 11.792969 L 17.199219 11.792969 C 17.761719 11.792969 18.398438 12.234375 18.398438 12.792969 C 18.398438 13.355469 17.761719 13.792969 17.199219 13.792969 L 12.800781 13.792969 C 12.558594 13.792969 12.398438 13.953125 12.398438 14.195312 C 12.398438 14.433594 12.558594 14.59375 12.800781 14.59375 L 15.601562 14.59375 C 16.160156 14.59375 16.800781 15.035156 16.800781 15.59375 C 16.800781 16.15625 16.160156 16.59375 15.601562 16.59375 L 13.679688 16.59375 C 13.640625 16.59375 13.640625 16.59375 13.601562 16.59375 L 12 16.59375 C 11.761719 16.59375 11.601562 16.753906 11.601562 16.996094 C 11.601562 17.234375 11.761719 17.394531 12 17.394531 L 13.679688 17.394531 C 14.199219 17.433594 14.800781 17.875 14.800781 18.394531 C 14.800781 18.953125 14.160156 19.394531 13.601562 19.394531 L 8 19.394531 C 4.960938 19.394531 4.960938 19.394531 3.441406 18.273438 C 3.359375 18.195312 3.238281 18.195312 3.160156 18.195312 L 0.398438 18.195312 C 0.160156 18.195312 0 18.355469 0 18.59375 C 0 18.835938 0.160156 18.996094 0.398438 18.996094 L 3.078125 18.996094 C 4.601562 20.113281 4.878906 20.195312 7.441406 20.195312 C 7.601562 20.195312 7.800781 20.195312 8 20.195312 L 13.601562 20.195312 C 14.558594 20.195312 15.601562 19.433594 15.601562 18.394531 C 15.601562 18.035156 15.480469 17.675781 15.238281 17.394531 L 15.601562 17.394531 C 16.558594 17.394531 17.601562 16.632812 17.601562 15.59375 C 17.601562 15.234375 17.480469 14.875 17.238281 14.59375 C 18.160156 14.59375 19.199219 13.792969 19.199219 12.792969 C 19.199219 12.433594 19.078125 12.074219 18.839844 11.792969 L 22 11.792969 C 22.960938 11.792969 24 11.035156 24 9.996094 C 24 8.953125 22.960938 8.195312 22 8.195312 Z M 22 8.195312"/>
    <path d="M4.398438 14.195312L4.398438 12.996094C4.398438 12.753906 4.238281 12.59375 4 12.59375 3.761719 12.59375 3.601562 12.753906 3.601562 12.996094L3.601562 14.195312C3.601562 14.433594 3.761719 14.59375 4 14.59375 4.238281 14.59375 4.398438 14.433594 4.398438 14.195312zM2.800781 14.59375L2.800781 12.59375C2.800781 12.355469 2.640625 12.195312 2.398438 12.195312 2.160156 12.195312 2 12.355469 2 12.59375L2 14.59375C2 14.835938 2.160156 14.996094 2.398438 14.996094 2.640625 14.996094 2.800781 14.835938 2.800781 14.59375zM2.800781 14.59375"/>
</svg>

<svg xmlns="http://www.w3.org/2000/svg" width="32" height="32" viewBox="0 0 24 24">
    <path d="M22 8.195h-8.48c.761-.36 1.48-.84 1.96-1.32.641-.64.68-1.922.079-2.64-.2-.2-.918-.88-2.2.038C12.16 5.113 9.52 5.797 8 5.797c-3.2 0-4.64 2.078-5.04 2.797H.399c-.238 0-.398.16-.398.402 0 .238.16.399.398.399H3.2c.16 0 .32-.079.36-.239.043-.12 1.203-2.562 4.441-2.562 1.48 0 4.398-.64 5.84-1.68.36-.277.84-.52 1.12-.16.321.402.321 1.2-.038 1.562-1 1-3.121 1.88-4.121 1.88-.242 0-.403.16-.403.398 0 .242.16.402.403.402H22c.559 0 1.2.438 1.2 1 0 .559-.641 1-1.2 1h-8.8c-.24 0-.4.16-.4.399 0 .242.16.398.4.398h4c.562 0 1.198.441 1.198 1 0 .562-.636 1-1.199 1h-4.398c-.242 0-.403.16-.403.402 0 .239.16.399.403.399h2.8c.56 0 1.2.441 1.2 1 0 .562-.64 1-1.2 1H12c-.238 0-.398.16-.398.402 0 .238.16.399.398.399h1.68c.52.039 1.12.48 1.12 1 0 .558-.64 1-1.198 1H8c-3.04 0-3.04 0-4.559-1.122-.082-.078-.203-.078-.28-.078H.397c-.238 0-.398.16-.398.399 0 .242.16.402.398.402h2.68c1.524 1.117 1.8 1.2 4.363 1.2H13.602c.957 0 2-.762 2-1.801 0-.36-.122-.72-.364-1h.364c.957 0 2-.762 2-1.801 0-.36-.122-.719-.364-1 .922 0 1.961-.801 1.961-1.801 0-.36-.12-.719-.36-1H22c.96 0 2-.758 2-1.797 0-1.043-1.04-1.8-2-1.8zm0 0"/>
    <path d="M4.398 14.195v-1.199c0-.242-.16-.402-.398-.402-.238 0-.398.16-.398.402v1.2c0 .238.16.398.398.398.238 0 .398-.16.398-.399zm0 0M2.8 14.594v-2c0-.239-.16-.399-.402-.399-.238 0-.398.16-.398.399v2c0 .242.16.402.398.402.243 0 .403-.16.403-.402zm0 0"/>
</svg>
